src/lib/packages/icons/src/assets/line/virus-covid-slash.svg

<svg width="24" height="24" viewBox="0 0 24 24" fill="none" xmlns="http://www.w3.org/2000/svg">
<path d="M7.93103 17.1299L18.889 6.17214C18.889 6.17214 18.89 6.17192 18.89 6.17092C18.89 6.16992 18.89 6.16995 18.891 6.16995L21.53 3.53103C21.823 3.23803 21.823 2.76299 21.53 2.46999C21.237 2.17699 20.762 2.17699 20.469 2.46999L18.359 4.5801L17.829 4.05007C17.536 3.75707 17.0609 3.75707 16.7679 4.05007C16.4749 4.34307 16.4749 4.81811 16.7679 5.11111L17.298 5.64114L16.569 6.37014C15.469 5.47914 14.151 4.93404 12.748 4.79104V3.751H13.498C13.912 3.751 14.248 3.415 14.248 3.001C14.248 2.587 13.912 2.251 13.498 2.251H10.498C10.084 2.251 9.74805 2.587 9.74805 3.001C9.74805 3.415 10.084 3.751 10.498 3.751H11.248V4.79104C9.84705 4.93504 8.52898 5.47912 7.42798 6.37112L6.69397 5.63699L7.22498 5.10598C7.51798 4.81298 7.51798 4.33795 7.22498 4.04495C6.93198 3.75195 6.45694 3.75195 6.16394 4.04495L4.04297 6.16702C3.74997 6.46002 3.74997 6.93505 4.04297 7.22805C4.18897 7.37405 4.381 7.44802 4.573 7.44802C4.765 7.44802 4.95703 7.37505 5.10303 7.22805L5.63306 6.69802L6.36597 7.43093C5.47497 8.53093 4.92999 9.849 4.78699 11.251H3.74695V10.501C3.74695 10.087 3.41095 9.751 2.99695 9.751C2.58295 9.751 2.24695 10.087 2.24695 10.501V13.501C2.24695 13.915 2.58295 14.251 2.99695 14.251C3.41095 14.251 3.74695 13.915 3.74695 13.501V12.751H4.78699C4.93099 14.153 5.47494 15.4711 6.36694 16.5711L5.63794 17.3001L5.10803 16.77C4.81603 16.478 4.341 16.477 4.047 16.77C3.754 17.062 3.754 17.5381 4.047 17.8311L4.57703 18.3611L2.46704 20.471C2.17404 20.764 2.17404 21.239 2.46704 21.532C2.61304 21.678 2.80495 21.752 2.99695 21.752C3.18895 21.752 3.38098 21.679 3.52698 21.532L7.92297 17.136C7.92397 17.135 7.92503 17.1351 7.92603 17.1341C7.92703 17.1331 7.93003 17.1309 7.93103 17.1299ZM6.25 12C6.25 10.473 6.84504 9.03214 7.92004 7.94314C7.92404 7.93914 7.92898 7.93811 7.93298 7.93411C7.93698 7.93111 7.93804 7.92614 7.94104 7.92214C9.03304 6.84514 10.474 6.25002 11.999 6.25002C13.276 6.25002 14.481 6.68712 15.484 7.45412L7.453 15.4851C6.687 14.4811 6.25 13.277 6.25 12ZM21.75 10.5V13.5C21.75 13.914 21.414 14.25 21 14.25C20.586 14.25 20.25 13.914 20.25 13.5V12.75H19.21C19.066 14.152 18.522 15.4701 17.631 16.5701L18.364 17.303L18.894 16.773C19.187 16.48 19.662 16.48 19.955 16.773C20.248 17.066 20.248 17.541 19.955 17.834L17.834 19.9561C17.688 20.1021 17.496 20.176 17.304 20.176C17.112 20.176 16.92 20.1031 16.774 19.9561C16.481 19.6631 16.481 19.188 16.774 18.895L17.3051 18.364L16.571 17.6299C15.47 18.5219 14.152 19.067 12.751 19.21V20.25H13.501C13.915 20.25 14.251 20.586 14.251 21C14.251 21.414 13.915 21.75 13.501 21.75H10.501C10.087 21.75 9.75098 21.414 9.75098 21C9.75098 20.586 10.087 20.25 10.501 20.25H11.251V19.188C10.699 19.13 10.151 19.0331 9.61804 18.8501C9.22504 18.7151 9.01698 18.289 9.15198 17.897C9.28698 17.505 9.717 17.2979 10.104 17.4309C12.187 18.1459 14.506 17.6091 16.058 16.0791C16.062 16.0751 16.063 16.0699 16.067 16.0659C16.071 16.0619 16.076 16.0609 16.08 16.0569C17.155 14.9679 17.75 13.527 17.75 12C17.75 11.358 17.643 10.72 17.431 10.104C17.296 9.71203 17.504 9.2859 17.896 9.1509C18.291 9.0179 18.715 9.22499 18.849 9.61599C19.033 10.149 19.13 10.698 19.188 11.25H20.251V10.5C20.251 10.086 20.587 9.75002 21.001 9.75002C21.415 9.75002 21.75 10.086 21.75 10.5Z" fill="currentColor"/>
</svg>

<svg xmlns="http://www.w3.org/2000/svg" width="24" height="24" fill="none"><path fill="currentColor" d="M7.931 17.13 18.889 6.172l.001-.001.001-.001 2.639-2.639a.75.75 0 0 0-1.061-1.061l-2.11 2.11-.53-.53a.75.75 0 0 0-1.061 1.061l.53.53-.729.73a7.212 7.212 0 0 0-3.821-1.58v-1.04h.75a.75.75 0 0 0 0-1.5h-3a.75.75 0 0 0 0 1.5h.75v1.04a7.22 7.22 0 0 0-3.82 1.58l-.734-.734.531-.531a.75.75 0 1 0-1.061-1.061L4.043 6.167a.75.75 0 0 0 1.06 1.061l.53-.53.733.733a7.212 7.212 0 0 0-1.579 3.82h-1.04v-.75a.75.75 0 0 0-1.5 0v3a.75.75 0 0 0 1.5 0v-.75h1.04a7.213 7.213 0 0 0 1.58 3.82l-.73.73-.529-.531a.751.751 0 0 0-1.061 1.061l.53.53-2.11 2.11a.75.75 0 0 0 1.06 1.061l4.396-4.396c.001-.001.002 0 .003-.002l.005-.004ZM6.25 12c0-1.527.595-2.968 1.67-4.057.004-.004.009-.005.013-.009.004-.003.005-.008.008-.012a5.75 5.75 0 0 1 4.058-1.672c1.277 0 2.482.437 3.485 1.204l-8.031 8.031C6.687 14.481 6.25 13.277 6.25 12Zm15.5-1.5v3a.75.75 0 0 1-1.5 0v-.75h-1.04a7.22 7.22 0 0 1-1.579 3.82l.733.733.53-.53a.75.75 0 1 1 1.061 1.061l-2.121 2.122a.748.748 0 0 1-1.06 0 .75.75 0 0 1 0-1.061l.531-.531-.734-.734a7.212 7.212 0 0 1-3.82 1.58v1.04h.75a.75.75 0 0 1 0 1.5h-3a.75.75 0 0 1 0-1.5h.75v-1.062a7.365 7.365 0 0 1-1.633-.338.749.749 0 1 1 .486-1.42 5.819 5.819 0 0 0 5.954-1.35c.004-.005.005-.01.009-.014.004-.004.009-.005.013-.01A5.745 5.745 0 0 0 17.75 12c0-.642-.107-1.28-.319-1.896a.75.75 0 1 1 1.418-.488 7.32 7.32 0 0 1 .339 1.634h1.063v-.75a.75.75 0 0 1 1.499 0Z"/></svg>
